T: Mixed Blooms
M: 4/4
L: 1/8
K: Edor
As Written
|: B,EEE FDB,A, | D3 D DFAF | E2 FE FABc | dfed BAFA |
BEEE BEcE | BEEE EDB,A, | DEFA dABA | FADE F2 EE :|
|: Beeg fdBc | dcdA FDFA | Beeg fdBc | dfaf e2 ef |
g2 fg edBc | dcdA BAFA | DEFA dABA | FADE FE E2 :|
